resources/icons/16px/vector.svg

<svg width="16" height="16" viewBox="0 0 16 16" fill="none" xmlns="http://www.w3.org/2000/svg">
<path fill-rule="evenodd" clip-rule="evenodd" d="M9.70287 0.29L11.7004 2.29H11.7104C11.8901 2.47 12 2.72 12 3C12 3.28 11.8901 3.53 11.7104 3.71L9.71286 5.71C9.53308 5.89 9.2834 6 9.00375 6C8.45443 6 8.00499 5.55 8.00499 5C8.00499 4.72 8.11486 4.47 8.29463 4.29L8.58427 4H4.99875C4.44944 4 4 3.55 4 3C4 2.45 4.44944 2 4.99875 2H8.56429L8.27466 1.71C8.09488 1.53 7.98502 1.28 7.98502 1C7.98502 0.45 8.43446 0 8.99376 0C9.27341 0 9.5231 0.11 9.70287 0.29ZM9.57001 8.64001C9.77001 8.13001 10.35 7.87001 10.86 8.07001C11.37 8.27001 11.63 8.85001 11.43 9.36001L9.18001 15.16C8.98001 15.67 8.52001 16 8.00001 16C7.48001 16 7.02001 15.67 6.82001 15.16L4.57001 9.36001C4.37001 8.85001 4.62001 8.27001 5.14001 8.07001C5.65001 7.87001 6.23001 8.12001 6.43001 8.64001L8.00001 12.68L9.57001 8.64001Z" fill="black"/>
</svg>

<svg xmlns="http://www.w3.org/2000/svg" viewBox="0 0 16 16">
  <path d="m9.703.29 1.997 2h.01c.18.18.29.43.29.71s-.11.53-.29.71l-1.997 2a1.002 1.002 0 0 1-1.418-1.42l.29-.29H4.998C4.449 4 4 3.55 4 3s.45-1 .999-1h3.565l-.29-.29A1.004 1.004 0 0 1 8.995 0c.28 0 .53.11.709.29M9.57 8.64c.2-.51.78-.77 1.29-.57s.77.78.57 1.29l-2.25 5.8c-.2.51-.66.84-1.18.84s-.98-.33-1.18-.84l-2.25-5.8c-.2-.51.05-1.09.57-1.29.51-.2 1.09.05 1.29.57L8 12.68z"/>
</svg>
